icons/modern/t-shirt.svg

<svg width="32" height="32" viewBox="0 0 32 32" fill="none" xmlns="http://www.w3.org/2000/svg">
<path d="M16.002 13.2201C18.2542 13.2201 20.0801 11.3943 20.0801 9.14197C20.0801 9.11588 20.0798 9.08981 20.0793 9.06384H11.9246C11.9241 9.08981 11.9238 9.11588 11.9238 9.14197C11.9238 11.3943 13.7497 13.2201 16.002 13.2201Z" fill="url(#paint0_linear_18_16422)"/>
<path d="M16.002 13.2201C18.2542 13.2201 20.0801 11.3943 20.0801 9.14197C20.0801 9.11588 20.0798 9.08981 20.0793 9.06384H11.9246C11.9241 9.08981 11.9238 9.11588 11.9238 9.14197C11.9238 11.3943 13.7497 13.2201 16.002 13.2201Z" fill="url(#paint1_radial_18_16422)"/>
<g filter="url(#filter0_f_18_16422)">
<path d="M11.6237 10.3128C11.5145 10.3128 11.4238 10.3985 11.4238 10.5077C11.4238 12.6053 13.6991 13.7047 15.7998 13.7047C17.9005 13.7047 19.6054 12.0062 19.6054 9.90859C19.6054 9.79937 19.5148 9.71375 19.4056 9.71375H18.9628C18.8572 9.71375 18.7741 9.80302 18.7741 9.90859C18.7741 11.5449 17.4436 12.8734 15.7998 12.8734C14.156 12.8734 12.2551 12.144 12.2551 10.5077C12.2551 10.4021 12.172 10.3128 12.0664 10.3128H11.6237Z" fill="#4B892A"/>
</g>
<path d="M2.47441 13.7399C2.20218 13.2686 2.35551 12.667 2.82129 12.3854C4.26868 11.5105 7.11327 9.79347 7.40246 9.63802C7.91697 9.36143 8.16414 9.2981 8.16414 9.2981L11.7072 14.7261L6.07644 17.977C5.59822 18.2531 4.98672 18.0893 4.71052 17.6111L2.47441 13.7399Z" fill="url(#paint2_linear_18_16422)"/>
<path d="M2.47441 13.7399C2.20218 13.2686 2.35551 12.667 2.82129 12.3854C4.26868 11.5105 7.11327 9.79347 7.40246 9.63802C7.91697 9.36143 8.16414 9.2981 8.16414 9.2981L11.7072 14.7261L6.07644 17.977C5.59822 18.2531 4.98672 18.0893 4.71052 17.6111L2.47441 13.7399Z" fill="url(#paint3_linear_18_16422)"/>
<path d="M2.47441 13.7399C2.20218 13.2686 2.35551 12.667 2.82129 12.3854C4.26868 11.5105 7.11327 9.79347 7.40246 9.63802C7.91697 9.36143 8.16414 9.2981 8.16414 9.2981L11.7072 14.7261L6.07644 17.977C5.59822 18.2531 4.98672 18.0893 4.71052 17.6111L2.47441 13.7399Z" fill="url(#paint4_radial_18_16422)"/>
<path d="M2.47441 13.7399C2.20218 13.2686 2.35551 12.667 2.82129 12.3854C4.26868 11.5105 7.11327 9.79347 7.40246 9.63802C7.91697 9.36143 8.16414 9.2981 8.16414 9.2981L11.7072 14.7261L6.07644 17.977C5.59822 18.2531 4.98672 18.0893 4.71052 17.6111L2.47441 13.7399Z" fill="url(#paint5_linear_18_16422)"/>
<path d="M2.47441 13.7399C2.20218 13.2686 2.35551 12.667 2.82129 12.3854C4.26868 11.5105 7.11327 9.79347 7.40246 9.63802C7.91697 9.36143 8.16414 9.2981 8.16414 9.2981L11.7072 14.7261L6.07644 17.977C5.59822 18.2531 4.98672 18.0893 4.71052 17.6111L2.47441 13.7399Z" fill="url(#paint6_radial_18_16422)"/>
<path d="M29.5294 13.7399C29.8017 13.2686 29.6483 12.667 29.1826 12.3854C27.7352 11.5105 25.0619 9.88559 24.6014 9.63802C24.1408 9.39044 23.8397 9.2981 23.8397 9.2981L20.2966 14.7261L25.9274 17.977C26.4056 18.2531 27.0171 18.0893 27.2933 17.6111L29.5294 13.7399Z" fill="url(#paint7_linear_18_16422)"/>
<path d="M29.5294 13.7399C29.8017 13.2686 29.6483 12.667 29.1826 12.3854C27.7352 11.5105 25.0619 9.88559 24.6014 9.63802C24.1408 9.39044 23.8397 9.2981 23.8397 9.2981L20.2966 14.7261L25.9274 17.977C26.4056 18.2531 27.0171 18.0893 27.2933 17.6111L29.5294 13.7399Z" fill="url(#paint8_linear_18_16422)"/>
<path d="M29.5294 13.7399C29.8017 13.2686 29.6483 12.667 29.1826 12.3854C27.7352 11.5105 25.0619 9.88559 24.6014 9.63802C24.1408 9.39044 23.8397 9.2981 23.8397 9.2981L20.2966 14.7261L25.9274 17.977C26.4056 18.2531 27.0171 18.0893 27.2933 17.6111L29.5294 13.7399Z" fill="url(#paint9_radial_18_16422)"/>
<path d="M29.5294 13.7399C29.8017 13.2686 29.6483 12.667 29.1826 12.3854C27.7352 11.5105 25.0619 9.88559 24.6014 9.63802C24.1408 9.39044 23.8397 9.2981 23.8397 9.2981L20.2966 14.7261L25.9274 17.977C26.4056 18.2531 27.0171 18.0893 27.2933 17.6111L29.5294 13.7399Z" fill="url(#paint10_linear_18_16422)"/>
<path d="M29.5294 13.7399C29.8017 13.2686 29.6483 12.667 29.1826 12.3854C27.7352 11.5105 25.0619 9.88559 24.6014 9.63802C24.1408 9.39044 23.8397 9.2981 23.8397 9.2981L20.2966 14.7261L25.9274 17.977C26.4056 18.2531 27.0171 18.0893 27.2933 17.6111L29.5294 13.7399Z" fill="url(#paint11_linear_18_16422)"/>
<path d="M9.96783 9.06384C9.35641 9.06384 8.74753 9.14261 8.15625 9.29822V29.3763C8.15625 29.6525 8.3801 29.8763 8.65625 29.8763H23.3438C23.6199 29.8763 23.8438 29.6525 23.8438 29.3763V9.29822L23.8022 9.28818C23.1862 9.13916 22.5547 9.06384 21.921 9.06384H20.0793C20.0797 9.08981 20.08 9.11588 20.08 9.14197C20.08 11.3943 18.2542 13.2201 16.0019 13.2201C13.7496 13.2201 11.9237 11.3943 11.9237 9.14197C11.9237 9.11588 11.924 9.08981 11.9245 9.06384H9.96783Z" fill="url(#paint12_linear_18_16422)"/>
<path d="M9.96783 9.06384C9.35641 9.06384 8.74753 9.14261 8.15625 9.29822V29.3763C8.15625 29.6525 8.3801 29.8763 8.65625 29.8763H23.3438C23.6199 29.8763 23.8438 29.6525 23.8438 29.3763V9.29822L23.8022 9.28818C23.1862 9.13916 22.5547 9.06384 21.921 9.06384H20.0793C20.0797 9.08981 20.08 9.11588 20.08 9.14197C20.08 11.3943 18.2542 13.2201 16.0019 13.2201C13.7496 13.2201 11.9237 11.3943 11.9237 9.14197C11.9237 9.11588 11.924 9.08981 11.9245 9.06384H9.96783Z" fill="url(#paint13_linear_18_16422)"/>
<path d="M9.96783 9.06384C9.35641 9.06384 8.74753 9.14261 8.15625 9.29822V29.3763C8.15625 29.6525 8.3801 29.8763 8.65625 29.8763H23.3438C23.6199 29.8763 23.8438 29.6525 23.8438 29.3763V9.29822L23.8022 9.28818C23.1862 9.13916 22.5547 9.06384 21.921 9.06384H20.0793C20.0797 9.08981 20.08 9.11588 20.08 9.14197C20.08 11.3943 18.2542 13.2201 16.0019 13.2201C13.7496 13.2201 11.9237 11.3943 11.9237 9.14197C11.9237 9.11588 11.924 9.08981 11.9245 9.06384H9.96783Z" fill="url(#paint14_linear_18_16422)"/>
<path d="M9.96783 9.06384C9.35641 9.06384 8.74753 9.14261 8.15625 9.29822V29.3763C8.15625 29.6525 8.3801 29.8763 8.65625 29.8763H23.3438C23.6199 29.8763 23.8438 29.6525 23.8438 29.3763V9.29822L23.8022 9.28818C23.1862 9.13916 22.5547 9.06384 21.921 9.06384H20.0793C20.0797 9.08981 20.08 9.11588 20.08 9.14197C20.08 11.3943 18.2542 13.2201 16.0019 13.2201C13.7496 13.2201 11.9237 11.3943 11.9237 9.14197C11.9237 9.11588 11.924 9.08981 11.9245 9.06384H9.96783Z" fill="url(#paint15_linear_18_16422)"/>
<path d="M9.96783 9.06384C9.35641 9.06384 8.74753 9.14261 8.15625 9.29822V29.3763C8.15625 29.6525 8.3801 29.8763 8.65625 29.8763H23.3438C23.6199 29.8763 23.8438 29.6525 23.8438 29.3763V9.29822L23.8022 9.28818C23.1862 9.13916 22.5547 9.06384 21.921 9.06384H20.0793C20.0797 9.08981 20.08 9.11588 20.08 9.14197C20.08 11.3943 18.2542 13.2201 16.0019 13.2201C13.7496 13.2201 11.9237 11.3943 11.9237 9.14197C11.9237 9.11588 11.924 9.08981 11.9245 9.06384H9.96783Z" fill="url(#paint16_radial_18_16422)"/>
<path d="M8.15625 18.7201V15.4388H23.8438V18.7201H8.15625Z" fill="url(#paint17_linear_18_16422)"/>
<g filter="url(#filter1_ii_18_16422)">
<path d="M11.6642 8.91907C11.5329 8.91907 11.4238 9.02208 11.4238 9.15346C11.4238 11.6769 13.4749 13.7201 16.002 13.7201C18.5291 13.7201 20.5801 11.6769 20.5801 9.15346C20.5801 9.02208 20.471 8.91907 20.3397 8.91907H19.807C19.68 8.91907 19.5801 9.02646 19.5801 9.15346C19.5801 11.1219 17.9794 12.7201 16.002 12.7201C14.0245 12.7201 12.4238 11.1219 12.4238 9.15346C12.4238 9.02646 12.3239 8.91907 12.1969 8.91907H11.6642Z" fill="url(#paint18_linear_18_16422)"/>
</g>
<defs>
<filter id="filter0_f_18_16422" x="10.4238" y="8.71375" width="10.1816" height="5.99097" filterUnits="userSpaceOnUse" color-interpolation-filters="sRGB">
<feFlood flood-opacity="0" result="BackgroundImageFix"/>
<feBlend mode="normal" in="SourceGraphic" in2="BackgroundImageFix" result="shape"/>
<feGaussianBlur stdDeviation="0.5" result="effect1_foregroundBlur_18_16422"/>
</filter>
<filter id="filter1_ii_18_16422" x="11.2238" y="8.71907" width="9.45625" height="5.10103" filterUnits="userSpaceOnUse" color-interpolation-filters="sRGB">
<feFlood flood-opacity="0" result="BackgroundImageFix"/>
<feBlend mode="normal" in="SourceGraphic" in2="BackgroundImageFix" result="shape"/>
<feColorMatrix in="SourceAlpha" type="matrix" values="0 0 0 0 0 0 0 0 0 0 0 0 0 0 0 0 0 0 127 0" result="hardAlpha"/>
<feOffset dx="0.1" dy="-0.2"/>
<feGaussianBlur stdDeviation="0.1"/>
<feComposite in2="hardAlpha" operator="arithmetic" k2="-1" k3="1"/>
<feColorMatrix type="matrix" values="0 0 0 0 0.164706 0 0 0 0 0.705882 0 0 0 0 0.368627 0 0 0 1 0"/>
<feBlend mode="normal" in2="shape" result="effect1_innerShadow_18_16422"/>
<feColorMatrix in="SourceAlpha" type="matrix" values="0 0 0 0 0 0 0 0 0 0 0 0 0 0 0 0 0 0 127 0" result="hardAlpha"/>
<feOffset dx="-0.2" dy="0.1"/>
<feGaussianBlur stdDeviation="0.1"/>
<feComposite in2="hardAlpha" operator="arithmetic" k2="-1" k3="1"/>
<feColorMatrix type="matrix" values="0 0 0 0 0.286275 0 0 0 0 0.843137 0 0 0 0 0.486275 0 0 0 1 0"/>
<feBlend mode="normal" in2="effect1_innerShadow_18_16422" result="effect2_innerShadow_18_16422"/>
</filter>
<linearGradient id="paint0_linear_18_16422" x1="16.002" y1="9.06384" x2="16.002" y2="12.2201" gradientUnits="userSpaceOnUse">
<stop stop-color="#A4D047"/>
<stop offset="1" stop-color="#66A749"/>
</linearGradient>
<radialGradient id="paint1_radial_18_16422" cx="0" cy="0" r="1" gradientUnits="userSpaceOnUse" gradientTransform="translate(16.002 9.06384) rotate(90) scale(3.9375 5.92282)">
<stop offset="0.484127" stop-color="#7FB84A" stop-opacity="0"/>
<stop offset="0.944444" stop-color="#4C8A3B"/>
</radialGradient>
<linearGradient id="paint2_linear_18_16422" x1="8.84387" y1="13.2826" x2="4.03137" y2="16.2826" gradientUnits="userSpaceOnUse">
<stop stop-color="#90CC68"/>
<stop offset="1" stop-color="#98D766"/>
</linearGradient>
<linearGradient id="paint3_linear_18_16422" x1="5.25012" y1="10.6888" x2="6.12512" y2="12.2201" gradientUnits="userSpaceOnUse">
<stop stop-color="#A6E36C"/>
<stop offset="1" stop-color="#A6E36C" stop-opacity="0"/>
</linearGradient>
<radialGradient id="paint4_radial_18_16422" cx="0" cy="0" r="1" gradientUnits="userSpaceOnUse" gradientTransform="translate(3.03137 15.3763) rotate(-32.3998) scale(1.9246 10.1167)">
<stop offset="0.293699" stop-color="#7AB25C"/>
<stop offset="1" stop-color="#93D263" stop-opacity="0"/>
</radialGradient>
<linearGradient id="paint5_linear_18_16422" x1="8.21887" y1="17.2513" x2="6.81262" y2="15.4701" gradientUnits="userSpaceOnUse">
<stop offset="0.130238" stop-color="#619B51"/>
<stop offset="1" stop-color="#85C26C" stop-opacity="0"/>
</linearGradient>
<radialGradient id="paint6_radial_18_16422" cx="0" cy="0" r="1" gradientUnits="userSpaceOnUse" gradientTransform="translate(8.53137 15.6888) rotate(180) scale(1.0625 5.40625)">
<stop offset="0.125001" stop-color="#72B25A"/>
<stop offset="1" stop-color="#72B25A" stop-opacity="0"/>
</radialGradient>
<linearGradient id="paint7_linear_18_16422" x1="23.875" y1="13.3763" x2="28.8125" y2="15.5638" gradientUnits="userSpaceOnUse">
<stop stop-color="#95D669"/>
<stop offset="1" stop-color="#8FD670"/>
</linearGradient>
<linearGradient id="paint8_linear_18_16422" x1="26.9062" y1="10.8763" x2="25.75" y2="12.9701" gradientUnits="userSpaceOnUse">
<stop offset="0.174377" stop-color="#C0FE7C"/>
<stop offset="1" stop-color="#98D969" stop-opacity="0"/>
</linearGradient>
<radialGradient id="paint9_radial_18_16422" cx="0" cy="0" r="1" gradientUnits="userSpaceOnUse" gradientTransform="translate(23.4688 12.2826) rotate(2.7263) scale(1.31399 12.7019)">
<stop offset="0.199095" stop-color="#ABF17B"/>
<stop offset="1" stop-color="#ABF17B" stop-opacity="0"/>
</radialGradient>
<linearGradient id="paint10_linear_18_16422" x1="28.2812" y1="15.9701" x2="28.0547" y2="15.8294" gradientUnits="userSpaceOnUse">
<stop stop-color="#8ECE6F"/>
<stop offset="1" stop-color="#8ECE6F" stop-opacity="0"/>
</linearGradient>
<linearGradient id="paint11_linear_18_16422" x1="24.4688" y1="17.1888" x2="25.2188" y2="15.9701" gradientUnits="userSpaceOnUse">
<stop stop-color="#68A163"/>
<stop offset="1" stop-color="#84CC69" stop-opacity="0"/>
</linearGradient>
<linearGradient id="paint12_linear_18_16422" x1="8.15625" y1="24.5638" x2="24.1875" y2="24.5638" gradientUnits="userSpaceOnUse">
<stop stop-color="#7ED279"/>
<stop offset="1" stop-color="#88EE94"/>
</linearGradient>
<linearGradient id="paint13_linear_18_16422" x1="7.4375" y1="28.8763" x2="16" y2="28.8763" gradientUnits="userSpaceOnUse">
<stop stop-color="#6FBE75"/>
<stop offset="1" stop-color="#6FBE75" stop-opacity="0"/>
</linearGradient>
<linearGradient id="paint14_linear_18_16422" x1="16" y1="9.06384" x2="16" y2="17.6263" gradientUnits="userSpaceOnUse">
<stop stop-color="#A5E26B"/>
<stop offset="1" stop-color="#A5E26B" stop-opacity="0"/>
</linearGradient>
<linearGradient id="paint15_linear_18_16422" x1="16" y1="30.0638" x2="16" y2="28.9675" gradientUnits="userSpaceOnUse">
<stop stop-color="#539583"/>
<stop offset="1" stop-color="#53AE80" stop-opacity="0"/>
</linearGradient>
<radialGradient id="paint16_radial_18_16422" cx="0" cy="0" r="1" gradientUnits="userSpaceOnUse" gradientTransform="translate(23.8437 9.06384) rotate(90) scale(8.59375 2.11378)">
<stop stop-color="#B9F87A"/>
<stop offset="1" stop-color="#B9F87A" stop-opacity="0"/>
</radialGradient>
<linearGradient id="paint17_linear_18_16422" x1="8.15625" y1="17.4388" x2="23.8438" y2="17.4388" gradientUnits="userSpaceOnUse">
<stop stop-color="#BDC792"/>
<stop offset="1" stop-color="#EBF9B6"/>
</linearGradient>
<linearGradient id="paint18_linear_18_16422" x1="16.002" y1="8.91907" x2="16.002" y2="13.7201" gradientUnits="userSpaceOnUse">
<stop stop-color="#2FCF6C"/>
<stop offset="1" stop-color="#2FC36B"/>
</linearGradient>
</defs>
</svg>

<svg width="32" height="32" fill="none" xmlns="http://www.w3.org/2000/svg"><path d="M16.002 13.22a4.078 4.078 0 0 0 4.077-4.156h-8.154l-.001.078a4.078 4.078 0 0 0 4.078 4.078Z" fill="url(#a)"/><path d="M16.002 13.22a4.078 4.078 0 0 0 4.077-4.156h-8.154l-.001.078a4.078 4.078 0 0 0 4.078 4.078Z" fill="url(#b)"/><g filter="url(#c)"><path d="M11.624 10.313c-.11 0-.2.085-.2.195 0 2.097 2.275 3.197 4.376 3.197a3.8 3.8 0 0 0 3.805-3.796c0-.11-.09-.195-.2-.195h-.442a.192.192 0 0 0-.189.195 2.97 2.97 0 0 1-2.974 2.964c-1.644 0-3.545-.729-3.545-2.365a.192.192 0 0 0-.189-.195h-.442Z" fill="#4B892A"/></g><path d="M2.474 13.74a.998.998 0 0 1 .347-1.355c1.448-.874 4.292-2.592 4.581-2.747.515-.277.762-.34.762-.34l3.543 5.428-5.63 3.251a1 1 0 0 1-1.366-.366L2.474 13.74Z" fill="url(#d)"/><path d="M2.474 13.74a.998.998 0 0 1 .347-1.355c1.448-.874 4.292-2.592 4.581-2.747.515-.277.762-.34.762-.34l3.543 5.428-5.63 3.251a1 1 0 0 1-1.366-.366L2.474 13.74Z" fill="url(#e)"/><path d="M2.474 13.74a.998.998 0 0 1 .347-1.355c1.448-.874 4.292-2.592 4.581-2.747.515-.277.762-.34.762-.34l3.543 5.428-5.63 3.251a1 1 0 0 1-1.366-.366L2.474 13.74Z" fill="url(#f)"/><path d="M2.474 13.74a.998.998 0 0 1 .347-1.355c1.448-.874 4.292-2.592 4.581-2.747.515-.277.762-.34.762-.34l3.543 5.428-5.63 3.251a1 1 0 0 1-1.366-.366L2.474 13.74Z" fill="url(#g)"/><path d="M2.474 13.74a.998.998 0 0 1 .347-1.355c1.448-.874 4.292-2.592 4.581-2.747.515-.277.762-.34.762-.34l3.543 5.428-5.63 3.251a1 1 0 0 1-1.366-.366L2.474 13.74Z" fill="url(#h)"/><path d="M29.53 13.74a.998.998 0 0 0-.347-1.355c-1.448-.874-4.121-2.5-4.582-2.747-.46-.248-.761-.34-.761-.34l-3.543 5.428 5.63 3.251a1 1 0 0 0 1.366-.366l2.236-3.871Z" fill="url(#i)"/><path d="M29.53 13.74a.998.998 0 0 0-.347-1.355c-1.448-.874-4.121-2.5-4.582-2.747-.46-.248-.761-.34-.761-.34l-3.543 5.428 5.63 3.251a1 1 0 0 0 1.366-.366l2.236-3.871Z" fill="url(#j)"/><path d="M29.53 13.74a.998.998 0 0 0-.347-1.355c-1.448-.874-4.121-2.5-4.582-2.747-.46-.248-.761-.34-.761-.34l-3.543 5.428 5.63 3.251a1 1 0 0 0 1.366-.366l2.236-3.871Z" fill="url(#k)"/><path d="M29.53 13.74a.998.998 0 0 0-.347-1.355c-1.448-.874-4.121-2.5-4.582-2.747-.46-.248-.761-.34-.761-.34l-3.543 5.428 5.63 3.251a1 1 0 0 0 1.366-.366l2.236-3.871Z" fill="url(#l)"/><path d="M29.53 13.74a.998.998 0 0 0-.347-1.355c-1.448-.874-4.121-2.5-4.582-2.747-.46-.248-.761-.34-.761-.34l-3.543 5.428 5.63 3.251a1 1 0 0 0 1.366-.366l2.236-3.871Z" fill="url(#m)"/><path d="M9.968 9.064c-.612 0-1.22.079-1.812.234v20.078a.5.5 0 0 0 .5.5h14.688a.5.5 0 0 0 .5-.5V9.298l-.042-.01a8 8 0 0 0-1.881-.224h-1.842l.001.078a4.078 4.078 0 1 1-8.155-.078H9.967Z" fill="url(#n)"/><path d="M9.968 9.064c-.612 0-1.22.079-1.812.234v20.078a.5.5 0 0 0 .5.5h14.688a.5.5 0 0 0 .5-.5V9.298l-.042-.01a8 8 0 0 0-1.881-.224h-1.842l.001.078a4.078 4.078 0 1 1-8.155-.078H9.967Z" fill="url(#o)"/><path d="M9.968 9.064c-.612 0-1.22.079-1.812.234v20.078a.5.5 0 0 0 .5.5h14.688a.5.5 0 0 0 .5-.5V9.298l-.042-.01a8 8 0 0 0-1.881-.224h-1.842l.001.078a4.078 4.078 0 1 1-8.155-.078H9.967Z" fill="url(#p)"/><path d="M9.968 9.064c-.612 0-1.22.079-1.812.234v20.078a.5.5 0 0 0 .5.5h14.688a.5.5 0 0 0 .5-.5V9.298l-.042-.01a8 8 0 0 0-1.881-.224h-1.842l.001.078a4.078 4.078 0 1 1-8.155-.078H9.967Z" fill="url(#q)"/><path d="M9.968 9.064c-.612 0-1.22.079-1.812.234v20.078a.5.5 0 0 0 .5.5h14.688a.5.5 0 0 0 .5-.5V9.298l-.042-.01a8 8 0 0 0-1.881-.224h-1.842l.001.078a4.078 4.078 0 1 1-8.155-.078H9.967Z" fill="url(#r)"/><path d="M8.156 18.72V15.44h15.688v3.281H8.156Z" fill="url(#s)"/><g filter="url(#t)"><path d="M11.664 8.92a.237.237 0 0 0-.24.233 4.572 4.572 0 0 0 4.578 4.567 4.572 4.572 0 0 0 4.578-4.567.237.237 0 0 0-.24-.234h-.533a.231.231 0 0 0-.227.234c0 1.969-1.6 3.567-3.578 3.567a3.572 3.572 0 0 1-3.578-3.567c0-.127-.1-.234-.227-.234h-.533Z" fill="url(#u)"/></g><defs><linearGradient id="a" x1="16.002" y1="9.064" x2="16.002" y2="12.22" gradientUnits="userSpaceOnUse"><stop stop-color="#A4D047"/><stop offset="1" stop-color="#66A749"/></linearGradient><linearGradient id="d" x1="8.844" y1="13.283" x2="4.031" y2="16.283" gradientUnits="userSpaceOnUse"><stop stop-color="#90CC68"/><stop offset="1" stop-color="#98D766"/></linearGradient><linearGradient id="e" x1="5.25" y1="10.689" x2="6.125" y2="12.22" gradientUnits="userSpaceOnUse"><stop stop-color="#A6E36C"/><stop offset="1" stop-color="#A6E36C" stop-opacity="0"/></linearGradient><linearGradient id="g" x1="8.219" y1="17.251" x2="6.813" y2="15.47" gradientUnits="userSpaceOnUse"><stop offset=".13" stop-color="#619B51"/><stop offset="1" stop-color="#85C26C" stop-opacity="0"/></linearGradient><linearGradient id="i" x1="23.875" y1="13.376" x2="28.813" y2="15.564" gradientUnits="userSpaceOnUse"><stop stop-color="#95D669"/><stop offset="1" stop-color="#8FD670"/></linearGradient><linearGradient id="j" x1="26.906" y1="10.876" x2="25.75" y2="12.97" gradientUnits="userSpaceOnUse"><stop offset=".174" stop-color="#C0FE7C"/><stop offset="1" stop-color="#98D969" stop-opacity="0"/></linearGradient><linearGradient id="l" x1="28.281" y1="15.97" x2="28.055" y2="15.829" gradientUnits="userSpaceOnUse"><stop stop-color="#8ECE6F"/><stop offset="1" stop-color="#8ECE6F" stop-opacity="0"/></linearGradient><linearGradient id="m" x1="24.469" y1="17.189" x2="25.219" y2="15.97" gradientUnits="userSpaceOnUse"><stop stop-color="#68A163"/><stop offset="1" stop-color="#84CC69" stop-opacity="0"/></linearGradient><linearGradient id="n" x1="8.156" y1="24.564" x2="24.188" y2="24.564" gradientUnits="userSpaceOnUse"><stop stop-color="#7ED279"/><stop offset="1" stop-color="#88EE94"/></linearGradient><linearGradient id="o" x1="7.438" y1="28.876" x2="16" y2="28.876" gradientUnits="userSpaceOnUse"><stop stop-color="#6FBE75"/><stop offset="1" stop-color="#6FBE75" stop-opacity="0"/></linearGradient><linearGradient id="p" x1="16" y1="9.064" x2="16" y2="17.626" gradientUnits="userSpaceOnUse"><stop stop-color="#A5E26B"/><stop offset="1" stop-color="#A5E26B" stop-opacity="0"/></linearGradient><linearGradient id="q" x1="16" y1="30.064" x2="16" y2="28.968" gradientUnits="userSpaceOnUse"><stop stop-color="#539583"/><stop offset="1" stop-color="#53AE80" stop-opacity="0"/></linearGradient><linearGradient id="s" x1="8.156" y1="17.439" x2="23.844" y2="17.439" gradientUnits="userSpaceOnUse"><stop stop-color="#BDC792"/><stop offset="1" stop-color="#EBF9B6"/></linearGradient><linearGradient id="u" x1="16.002" y1="8.919" x2="16.002" y2="13.72" gradientUnits="userSpaceOnUse"><stop stop-color="#2FCF6C"/><stop offset="1" stop-color="#2FC36B"/></linearGradient><radialGradient id="b" cx="0" cy="0" r="1" gradientUnits="userSpaceOnUse" gradientTransform="matrix(0 3.9375 -5.92282 0 16.002 9.064)"><stop offset=".484" stop-color="#7FB84A" stop-opacity="0"/><stop offset=".944" stop-color="#4C8A3B"/></radialGradient><radialGradient id="f" cx="0" cy="0" r="1" gradientUnits="userSpaceOnUse" gradientTransform="matrix(1.625 -1.03125 5.42077 8.54183 3.031 15.376)"><stop offset=".294" stop-color="#7AB25C"/><stop offset="1" stop-color="#93D263" stop-opacity="0"/></radialGradient><radialGradient id="h" cx="0" cy="0" r="1" gradientUnits="userSpaceOnUse" gradientTransform="matrix(-1.0625 0 0 -5.40625 8.531 15.689)"><stop offset=".125" stop-color="#72B25A"/><stop offset="1" stop-color="#72B25A" stop-opacity="0"/></radialGradient><radialGradient id="k" cx="0" cy="0" r="1" gradientUnits="userSpaceOnUse" gradientTransform="matrix(1.3125 .0625 -.60417 12.68752 23.469 12.283)"><stop offset=".199" stop-color="#ABF17B"/><stop offset="1" stop-color="#ABF17B" stop-opacity="0"/></radialGradient><radialGradient id="r" cx="0" cy="0" r="1" gradientUnits="userSpaceOnUse" gradientTransform="matrix(0 8.59375 -2.11378 0 23.844 9.064)"><stop stop-color="#B9F87A"/><stop offset="1" stop-color="#B9F87A" stop-opacity="0"/></radialGradient><filter id="c" x="10.424" y="8.714" width="10.182" height="5.991" filterUnits="userSpaceOnUse" color-interpolation-filters="sRGB"><feFlood flood-opacity="0" result="BackgroundImageFix"/><feBlend in="SourceGraphic" in2="BackgroundImageFix" result="shape"/><feGaussianBlur stdDeviation=".5" result="effect1_foregroundBlur_18_16422"/></filter><filter id="t" x="11.224" y="8.719" width="9.456" height="5.101" filterUnits="userSpaceOnUse" color-interpolation-filters="sRGB"><feFlood flood-opacity="0" result="BackgroundImageFix"/><feBlend in="SourceGraphic" in2="BackgroundImageFix" result="shape"/><feColorMatrix in="SourceAlpha" values="0 0 0 0 0 0 0 0 0 0 0 0 0 0 0 0 0 0 127 0" result="hardAlpha"/><feOffset dx=".1" dy="-.2"/><feGaussianBlur stdDeviation=".1"/><feComposite in2="hardAlpha" operator="arithmetic" k2="-1" k3="1"/><feColorMatrix values="0 0 0 0 0.164706 0 0 0 0 0.705882 0 0 0 0 0.368627 0 0 0 1 0"/><feBlend in2="shape" result="effect1_innerShadow_18_16422"/><feColorMatrix in="SourceAlpha" values="0 0 0 0 0 0 0 0 0 0 0 0 0 0 0 0 0 0 127 0" result="hardAlpha"/><feOffset dx="-.2" dy=".1"/><feGaussianBlur stdDeviation=".1"/><feComposite in2="hardAlpha" operator="arithmetic" k2="-1" k3="1"/><feColorMatrix values="0 0 0 0 0.286275 0 0 0 0 0.843137 0 0 0 0 0.486275 0 0 0 1 0"/><feBlend in2="effect1_innerShadow_18_16422" result="effect2_innerShadow_18_16422"/></filter></defs></svg>
